svgs/regular/face-party.svg

<svg xmlns="http://www.w3.org/2000/svg" viewBox="0 0 640 512"><!--! Font Awesome Pro 6.3.0 by @fontawesome - https://fontawesome.com License - https://fontawesome.com/license (Commercial License) Copyright 2023 Fonticons, Inc. --><path d="M320 464c59 0 112.2-24.6 150.1-64h61.6C485.6 467.6 408 512 320 512C178.6 512 64 397.4 64 256S178.6 0 320 0C433.4 0 529.7 73.8 563.3 176H560c-15.9 0-30.7 4.6-43.2 12.6C488.9 106.8 411.3 48 320 48c-114.9 0-208 93.1-208 208s93.1 208 208 208zM204.8 233.6c-5.3 7.1-15.3 8.5-22.4 3.2s-8.5-15.3-3.2-22.4c30.4-40.5 91.2-40.5 121.6 0c5.3 7.1 3.9 17.1-3.2 22.4s-17.1 3.9-22.4-3.2c-17.6-23.5-52.8-23.5-70.4 0zm160 0c-5.3 7.1-15.3 8.5-22.4 3.2s-8.5-15.3-3.2-22.4c30.4-40.5 91.2-40.5 121.6 0c5.3 7.1 3.9 17.1-3.2 22.4s-17.1 3.9-22.4-3.2c-17.6-23.5-52.8-23.5-70.4 0zM416 316c0 6.9-3.1 13.2-7.3 18.3c-.5 .6-1 1.1-1.5 1.7H592c8.8 0 16-7.2 16-16V256c0-8.8-7.2-16-16-16H560c-8.8 0-16 7.2-16 16s7.2 16 16 16h16c8.8 0 16 7.2 16 16s-7.2 16-16 16H560c-26.5 0-48-21.5-48-48s21.5-48 48-48h32c26.5 0 48 21.5 48 48v64c0 26.5-21.5 48-48 48H407.2c.5 .6 1 1.1 1.5 1.7c4.3 5.1 7.3 11.4 7.3 18.3s-3.1 13.2-7.3 18.3c-4.3 5.2-10.1 9.7-16.7 13.4C378.7 427.1 361.4 432 344 432c-3.6 0-6.8-2.5-7.7-6s.6-7.2 3.8-9l0 0 0 0 0 0 0 0 .2-.1c.2-.1 .5-.3 .9-.5c.8-.5 2-1.2 3.4-2.1c2.8-1.9 6.5-4.5 10.2-7.6c3.7-3.1 7.2-6.6 9.6-10.1c2.5-3.5 3.5-6.4 3.5-8.6s-1-5-3.5-8.6c-2.5-3.5-5.9-6.9-9.6-10.1c-3.7-3.1-7.4-5.7-10.2-7.6c-1.4-.9-2.6-1.6-3.4-2.1c-.4-.2-.7-.4-.9-.5l-.2-.1 0 0 0 0 0 0c-2.5-1.4-4.1-4.1-4.1-7s1.6-5.6 4.1-7l0 0 0 0 0 0 0 0 0 0 .2-.1c.2-.1 .5-.3 .9-.5c.8-.5 2-1.2 3.4-2.1c2.8-1.9 6.5-4.5 10.2-7.6c3.7-3.1 7.2-6.6 9.6-10.1c2.5-3.5 3.5-6.4 3.5-8.6s-1-5-3.5-8.6c-2.5-3.5-5.9-6.9-9.6-10.1c-3.7-3.1-7.4-5.7-10.2-7.6c-1.4-.9-2.6-1.6-3.4-2.1c-.4-.2-.7-.4-.9-.5l-.2-.1 0 0 0 0 0 0c-3.2-1.8-4.7-5.5-3.8-9s4.1-6 7.7-6c17.4 0 34.7 4.9 47.9 12.3c6.6 3.7 12.5 8.2 16.7 13.4c4.3 5.1 7.3 11.4 7.3 18.3zM51.3 152.2l-20-52C46.6 71.8 66 46 88.8 23.4L132 37.8C96.5 68.5 68.5 107.7 51.3 152.2zM55.1 12.2C40.9 27.6 28 44.4 16.6 62.1L1.1 21.7C-1.2 16 .2 9.4 4.4 4.9S15.2-1.1 21.1 .8L55.1 12.2z"/></svg>

<svg xmlns="http://www.w3.org/2000/svg" viewBox="0 0 640 512"><!--! Font Awesome Pro 6.2.0 by @fontawesome - https://fontawesome.com License - https://fontawesome.com/license (Commercial License) Copyright 2022 Fonticons, Inc. --><path d="M320 464C378.1 464 432.2 439.4 470.1 400H531.7C485.6 467.6 407.1 512 320 512C178.6 512 64 397.4 64 256C64 114.6 178.6 0 320 0C433.4 0 529.7 73.79 563.3 176H560C544.1 176 529.3 180.6 516.8 188.6C488.9 106.8 411.3 48 320 48C205.1 48 112 141.1 112 256C112 370.9 205.1 464 320 464zM182.4 236.8C175.3 231.5 173.9 221.5 179.2 214.4C209.6 173.9 270.4 173.9 300.8 214.4C306.1 221.5 304.7 231.5 297.6 236.8C290.5 242.1 280.5 240.7 275.2 233.6C257.6 210.1 222.4 210.1 204.8 233.6C199.5 240.7 189.5 242.1 182.4 236.8V236.8zM342.4 236.8C335.3 231.5 333.9 221.5 339.2 214.4C369.6 173.9 430.4 173.9 460.8 214.4C466.1 221.5 464.7 231.5 457.6 236.8C450.5 242.1 440.5 240.7 435.2 233.6C417.6 210.1 382.4 210.1 364.8 233.6C359.5 240.7 349.5 242.1 342.4 236.8zM408.7 334.3C408.2 334.9 407.7 335.4 407.2 336H592C600.8 336 608 328.8 608 320V256C608 247.2 600.8 240 592 240H560C551.2 240 544 247.2 544 256C544 264.8 551.2 272 560 272H576C584.8 272 592 279.2 592 288C592 296.8 584.8 304 576 304H560C533.5 304 512 282.5 512 256C512 229.5 533.5 208 560 208H592C618.5 208 640 229.5 640 256V320C640 346.5 618.5 368 592 368H407.2C407.7 368.6 408.2 369.1 408.7 369.7C412.9 374.8 416 381.1 416 388C416 394.9 412.9 401.2 408.7 406.3C404.4 411.5 398.5 416 391.9 419.7C378.7 427.1 361.4 432 344 432C340.4 432 337.2 429.5 336.3 426C335.3 422.5 336.9 418.8 340.1 417L340.1 417L340.3 416.9C340.5 416.8 340.8 416.6 341.2 416.3C342 415.9 343.2 415.1 344.6 414.2C347.4 412.4 351.2 409.7 354.8 406.6C358.6 403.5 362 400 364.5 396.6C366.1 393 368 390.2 368 388C368 385.8 366.1 382.1 364.5 379.4C362 375.1 358.6 372.5 354.8 369.4C351.2 366.3 347.4 363.6 344.6 361.8C343.2 360.9 342 360.1 341.2 359.7C340.8 359.4 340.5 359.2 340.3 359.1L340.1 358.1L340.1 358.1C337.6 357.6 336 354.9 336 352C336 349.1 337.6 346.4 340.1 345L340.1 345L340.3 344.9C340.5 344.8 340.8 344.6 341.2 344.3C342 343.9 343.2 343.1 344.6 342.2C347.4 340.4 351.2 337.7 354.8 334.6C358.6 331.5 362 328.1 364.5 324.6C366.1 321 368 318.2 368 316C368 313.8 366.1 310.1 364.5 307.4C362 303.1 358.6 300.5 354.8 297.4C351.2 294.3 347.4 291.6 344.6 289.8C343.2 288.9 342 288.1 341.2 287.7C340.8 287.4 340.5 287.2 340.3 287.1L340.1 286.1L340.1 286.1C336.9 285.2 335.3 281.5 336.3 277.1C337.2 274.5 340.4 272 344 272C361.4 272 378.7 276.9 391.9 284.3C398.5 287.1 404.4 292.5 408.7 297.7C412.9 302.8 416 309.1 416 316C416 322.9 412.9 329.2 408.7 334.3L408.7 334.3zM51.26 152.2L31.26 100.3C46.62 71.85 66.04 45.97 88.75 23.39L132 37.81C96.46 68.47 68.47 107.7 51.26 152.2zM55.14 12.18C40.89 27.64 27.99 44.36 16.6 62.14L1.067 21.74C-1.156 15.97 .1552 9.423 4.433 4.947C8.71 .4704 15.19-1.136 21.06 .8218L55.14 12.18z"/></svg>
